src/assets/icons/adwaita/mimetypes/oasis-web.svg

<?xml version="1.0" encoding="UTF-8" standalone="no"?>
<svg
   height="128px"
   viewBox="0 0 128 128"
   width="128px"
   version="1.1"
   id="oasis_web_svg35"
   xmlns="http://www.w3.org/2000/svg"
   xmlns:svg="http://www.w3.org/2000/svg">
  <defs
     id="oasis_web_defs39" />
  <linearGradient
     id="oasis_web_a"
     gradientUnits="userSpaceOnUse"
     x1="36"
     x2="60"
     y1="68"
     y2="68">
    <stop
       offset="0"
       stop-color="#ed336c"
       id="oasis_web_stop2" />
    <stop
       offset="1"
       stop-color="#ffa348"
       id="oasis_web_stop4" />
  </linearGradient>
  <linearGradient
     id="oasis_web_b"
     gradientTransform="matrix(0 1 -1 0 144 -32)"
     gradientUnits="userSpaceOnUse"
     x1="72"
     x2="96"
     y1="68"
     y2="68">
    <stop
       offset="0"
       stop-color="#404ce6"
       id="oasis_web_stop7" />
    <stop
       offset="1"
       stop-color="#c061cb"
       id="oasis_web_stop9" />
  </linearGradient>
  <linearGradient
     id="oasis_web_c"
     gradientUnits="userSpaceOnUse"
     x1="68.84919"
     x2="95.257637"
     y1="84"
     y2="84">
    <stop
       offset="0"
       stop-color="#33d1c6"
       id="oasis_web_stop12" />
    <stop
       offset="1"
       stop-color="#1c25d8"
       id="oasis_web_stop14" />
  </linearGradient>
  <g
     id="oasis_web_g27623"
     transform="translate(-42.84528,135.33545)"
     style="stroke-width:0.25" />
  <g
     style="stroke-width:2.62472"
     transform="matrix(0.0952482,0,0,0.0952482,498.72128,-49.974552)"
     id="oasis_web_g27623-5" />
  <g
     id="oasis_web_g1893"
     transform="matrix(0.0952482,0,0,0.0952482,-624.92113,-414.82765)"
     style="stroke-width:2.62472" />
  <g
     style="stroke-width:0.25"
     transform="matrix(0.2447541,0,0,0.2447541,-257.6935,146.47785)"
     id="oasis_web_g1879" />
  <g
     transform="matrix(0.5,0,0,0.5,-638.4877,-382.02941)"
     id="oasis_web_g15395"
     style="display:inline;fill:#c0bfbc;stroke-width:2;enable-background:new" />
  <g
     style="display:inline;fill:#deddda;stroke-width:2;enable-background:new"
     id="oasis_web_g15401"
     transform="matrix(0.5,0,0,0.5,-638.4877,-381.02941)" />
  <g
     style="display:inline;fill:#c0bfbc;stroke-width:2;enable-background:new"
     id="oasis_web_g15421"
     transform="matrix(0.5,0,0,0.5,-641.4877,-345.02941)" />
  <g
     transform="matrix(0.5,0,0,0.5,-641.4877,-344.02941)"
     id="oasis_web_g15423"
     style="display:inline;fill:#deddda;stroke-width:2;enable-background:new" />
  <g
     id="oasis_web_g4417"
     transform="matrix(0.2447541,0,0,0.2447541,-413.21244,146.47785)"
     style="stroke-width:0.25" />
  <g
     style="stroke-width:2.62472"
     transform="matrix(0.0952482,0,0,0.0952482,-597.94532,-105.8707)"
     id="oasis_web_g4431" />
  <g
     aria-label="{}"
     id="oasis_web_text6392"
     style="font-size:56px;line-height:1.25;font-family:Cantarell;-inkscape-font-specification:Cantarell;letter-spacing:-2px"
     transform="translate(-258.3226,94.213748)" />
  <text
     xml:space="preserve"
     style="font-size:56px;line-height:1.25;font-family:'Source Code Pro';-inkscape-font-specification:'Source Code Pro'"
     x="-223.57693"
     y="135.18233"
     id="oasis_web_text18928"><tspan
       id="oasis_web_tspan18926" /></text>
  <g
     id="oasis_web_g1457"
     transform="matrix(0.25,0,0,0.25,-3.22915,-206.3321)"
     style="display:inline;enable-background:new">
    <path
       style="display:inline;fill:#f6f5f4;fill-opacity:1;stroke:none;stroke-width:0.5;stroke-linejoin:round;stroke-miterlimit:4;stroke-dasharray:none;stroke-opacity:1;enable-background:new"
       clip-path="none"
       d="m 124.82842,857.32842 h 200 L 445,977 l 0.005,296.24 c 3.1e-4,17.728 -14.44878,32.0884 -32.17678,32.0884 h -288 c -17.72799,0 -31.99999,-14.272 -31.99999,-32 V 889.32842 c 0,-17.728 14.272,-32 31.99999,-32 z"
       id="oasis_web_rect2069" />
    <path
       style="display:inline;vector-effect:none;fill:#deddda;fill-opacity:1;stroke:none;stroke-width:0.5;stroke-linecap:butt;stroke-linejoin:round;stroke-miterlimit:4;stroke-dasharray:none;stroke-dashoffset:0;stroke-opacity:1;enable-background:new"
       d="m 324.82842,857.32842 v 88.00001 c 0,17.728 14.44211,31.69379 32.17011,31.69379 L 445,977 Z"
       id="oasis_web_rect26812" />
  </g>
  <g
     id="oasis_web_g3411"
     transform="matrix(0.5,0,0,0.5,165.99992,-36.5806)"
     style="display:inline;enable-background:new">
    <path
       id="oasis_web_path3345"
       d="m -144.00001,221 a 59.999995,59.999995 0 0 1 -59.99997,60 59.999995,59.999995 0 0 1 -60.00001,-60 59.999995,59.999995 0 0 1 60.00001,-59.99999 A 59.999995,59.999995 0 0 1 -144.00001,221 Z"
       style="display:inline;opacity:1;fill:#62a0ea;fill-opacity:1;stroke:none;stroke-width:0.0112982px;stroke-linecap:butt;stroke-linejoin:miter;stroke-miterlimit:4;stroke-dasharray:none;stroke-dashoffset:0;stroke-opacity:1;marker:none;marker-start:none;marker-mid:none;marker-end:none;paint-order:normal;enable-background:new" />
    <path
       style="display:inline;opacity:1;fill:#3584e4;fill-opacity:1;stroke:none;stroke-width:0.0112982px;stroke-linecap:butt;stroke-linejoin:miter;stroke-miterlimit:4;stroke-dasharray:none;stroke-dashoffset:0;stroke-opacity:1;marker:none;marker-start:none;marker-mid:none;marker-end:none;paint-order:normal;enable-background:new"
       d="M -144.00001,219 A 59.999995,59.999995 0 0 1 -203.99998,278.99999 59.999995,59.999995 0 0 1 -263.99999,219 a 59.999995,59.999995 0 0 1 60.00001,-60 59.999995,59.999995 0 0 1 59.99997,60 z"
       id="oasis_web_path3347" />
    <g
       transform="translate(-260)"
       id="oasis_web_g3357">
      <path
         id="oasis_web_path3349"
         style="display:inline;fill:#99c1f1;fill-opacity:1;stroke:none;stroke-width:0.0112982px;stroke-linecap:butt;stroke-linejoin:miter;stroke-miterlimit:4;stroke-dasharray:none;stroke-dashoffset:0;stroke-opacity:1;marker:none;marker-start:none;marker-mid:none;marker-end:none;paint-order:normal;enable-background:new"
         d="m 20.003748,219.9991 a 36.000001,62.999995 0 0 0 7.83789,38.25196 44.000003,26.999993 0 0 0 -9.86328,7.16016 59.999995,59.999995 0 0 1 -21.9707099,-45.41212 z" />
      <path
         d="m 55.999998,219.99998 v 59 a 59.999995,59.999995 0 0 1 -13.37695,-1.51172 36.000001,62.999995 0 0 1 -22.61914,-57.48828 z"
         style="display:inline;fill:#62a0ea;fill-opacity:1;stroke:none;stroke-width:0.00896766px;stroke-linecap:butt;stroke-linejoin:miter;stroke-miterlimit:4;stroke-dasharray:none;stroke-dashoffset:0;stroke-opacity:1;marker:none;marker-start:none;marker-mid:none;marker-end:none;paint-order:normal;enable-background:new"
         id="oasis_web_path3351" />
      <path
         d="m 55.999998,251.99998 v 27 a 59.999995,59.999995 0 0 1 -13.37695,-1.51172 36.000001,62.999995 0 0 1 -14.78125,-19.23633 44.000003,26.999993 0 0 1 28.1582,-6.25195 z"
         style="display:inline;fill:#3584e4;fill-opacity:1;stroke:none;stroke-width:0.00649031px;stroke-linecap:butt;stroke-linejoin:miter;stroke-miterlimit:4;stroke-dasharray:none;stroke-dashoffset:0;stroke-opacity:1;marker:none;marker-start:none;marker-mid:none;marker-end:none;paint-order:normal;enable-background:new"
         id="oasis_web_path3353" />
      <path
         id="oasis_web_path3355"
         style="display:inline;fill:#62a0ea;fill-opacity:1;stroke:none;stroke-width:0.00649031px;stroke-linecap:butt;stroke-linejoin:miter;stroke-miterlimit:4;stroke-dasharray:none;stroke-dashoffset:0;stroke-opacity:1;marker:none;marker-start:none;marker-mid:none;marker-end:none;paint-order:normal;enable-background:new"
         d="m 27.841638,258.25106 a 36.000001,62.999995 0 0 0 14.78125,19.23632 59.999995,59.999995 0 0 1 -24.64453,-12.07617 44.000003,26.999993 0 0 1 9.86328,-7.16015 z" />
    </g>
    <g
       id="oasis_web_g3367"
       transform="translate(-259.51181,-9e-4)">
      <path
         d="m 91.507902,220.00088 a 36.000001,62.999995 0 0 1 -7.83789,38.25196 44.000003,26.999993 0 0 1 9.86328,7.16016 59.999995,59.999995 0 0 0 21.970708,-45.41212 z"
         style="display:inline;fill:#1c71d8;fill-opacity:1;stroke:none;stroke-width:0.0112982px;stroke-linecap:butt;stroke-linejoin:miter;stroke-miterlimit:4;stroke-dasharray:none;stroke-dashoffset:0;stroke-opacity:1;marker:none;marker-start:none;marker-mid:none;marker-end:none;paint-order:normal;enable-background:new"
         id="oasis_web_path3359" />
      <path
         id="oasis_web_path3361"
         style="display:inline;fill:#3584e4;fill-opacity:1;stroke:none;stroke-width:0.00896766px;stroke-linecap:butt;stroke-linejoin:miter;stroke-miterlimit:4;stroke-dasharray:none;stroke-dashoffset:0;stroke-opacity:1;marker:none;marker-start:none;marker-mid:none;marker-end:none;paint-order:normal;enable-background:new"
         d="m 55.511812,220.00088 v 59 a 59.999995,59.999995 0 0 0 13.37695,-1.51172 36.000001,62.999995 0 0 0 22.61914,-57.48828 z" />
      <path
         id="oasis_web_path3363"
         style="display:inline;fill:#1c71d8;fill-opacity:1;stroke:none;stroke-width:0.00649031px;stroke-linecap:butt;stroke-linejoin:miter;stroke-miterlimit:4;stroke-dasharray:none;stroke-dashoffset:0;stroke-opacity:1;marker:none;marker-start:none;marker-mid:none;marker-end:none;paint-order:normal;enable-background:new"
         d="m 55.511812,252.00088 v 27 a 59.999995,59.999995 0 0 0 13.37695,-1.51172 36.000001,62.999995 0 0 0 14.78125,-19.23633 44.000003,26.999993 0 0 0 -28.1582,-6.25195 z" />
      <path
         d="m 83.670172,258.25196 a 36.000001,62.999995 0 0 1 -14.78125,19.23632 59.999995,59.999995 0 0 0 24.64453,-12.07617 44.000003,26.999993 0 0 0 -9.86328,-7.16015 z"
         style="display:inline;fill:#1a5fb4;fill-opacity:1;stroke:none;stroke-width:0.00649031px;stroke-linecap:butt;stroke-linejoin:miter;stroke-miterlimit:4;stroke-dasharray:none;stroke-dashoffset:0;stroke-opacity:1;marker:none;marker-start:none;marker-mid:none;marker-end:none;paint-order:normal;enable-background:new"
         id="oasis_web_path3365" />
    </g>
    <g
       transform="translate(-260)"
       id="oasis_web_g3377">
      <path
         transform="translate(-8,156)"
         d="M 64,3 A 59.999995,59.999995 0 0 0 4,63 59.999995,59.999995 0 0 0 4.00781,64 H 64 Z"
         style="opacity:1;fill:#b3d3f9;fill-opacity:1;stroke:none;stroke-width:2;stroke-linecap:round;stroke-linejoin:round;stroke-opacity:0"
         id="oasis_web_path3369" />
      <path
         transform="translate(-8,156)"
         d="M 50.626953,4.5097656 A 59.999995,59.999995 0 0 0 25.976562,16.585938 44.000003,26.999993 0 0 0 35.841797,23.748047 36.000001,62.999995 0 0 1 50.626953,4.5097656 Z"
         style="opacity:1;fill:#d7e8fc;fill-opacity:1;stroke:none;stroke-width:2;stroke-linecap:round;stroke-linejoin:round;stroke-opacity:0"
         id="oasis_web_path3371" />
      <path
         transform="translate(-8,156)"
         d="M 64,3 A 59.999995,59.999995 0 0 0 50.626953,4.5097656 36.000001,62.999995 0 0 0 28,63 36.000001,62.999995 0 0 0 28.0039,64 H 64 Z"
         style="opacity:1;fill:#99c1f1;fill-opacity:1;stroke:none;stroke-width:3.50449;stroke-linecap:round;stroke-linejoin:round;stroke-opacity:0"
         id="oasis_web_path3373" />
      <path
         transform="translate(-8,156)"
         d="M 64,3 A 59.999995,59.999995 0 0 0 50.626953,4.5097656 36.000001,62.999995 0 0 0 35.84375,23.748047 44.000003,26.999993 0 0 0 64,30 Z"
         style="opacity:1;fill:#b3d3f9;fill-opacity:1;stroke:none;stroke-width:3.50449;stroke-linecap:round;stroke-linejoin:round;stroke-opacity:0"
         id="oasis_web_path3375" />
    </g>
    <g
       id="oasis_web_g3387"
       transform="translate(-199.99964,-2.3353255e-5)">
      <path
         id="oasis_web_path3379"
         style="fill:#3584e4;fill-opacity:1;stroke:none;stroke-width:2;stroke-linecap:round;stroke-linejoin:round;stroke-opacity:0"
         d="m -4.000008,159 a 59.999995,59.999995 0 0 1 60,60 59.999995,59.999995 0 0 1 -0.0078,1 h -59.99219 z" />
      <path
         id="oasis_web_path3381"
         style="fill:#62a0ea;fill-opacity:1;stroke:none;stroke-width:2;stroke-linecap:round;stroke-linejoin:round;stroke-opacity:0"
         d="M 9.373039,160.50977 A 59.999995,59.999995 0 0 1 34.02343,172.58594 44.000003,26.999993 0 0 1 24.158195,179.74805 36.000001,62.999995 0 0 0 9.373039,160.50977 Z" />
      <path
         id="oasis_web_path3383"
         style="fill:#62a0ea;fill-opacity:1;stroke:none;stroke-width:3.50449;stroke-linecap:round;stroke-linejoin:round;stroke-opacity:0"
         d="M -4.000008,159 A 59.999995,59.999995 0 0 1 9.373039,160.50977 36.000001,62.999995 0 0 1 31.999992,219 a 36.000001,62.999995 0 0 1 -0.0039,1 h -35.9961 z" />
      <path
         id="oasis_web_path3385"
         style="fill:#99c1f1;fill-opacity:1;stroke:none;stroke-width:3.50449;stroke-linecap:round;stroke-linejoin:round;stroke-opacity:0"
         d="M -4.000008,159 A 59.999995,59.999995 0 0 1 9.373039,160.50977 36.000001,62.999995 0 0 1 24.156242,179.74805 44.000003,26.999993 0 0 1 -4.000008,186 Z" />
    </g>
  </g>
</svg>

<svg xmlns="http://www.w3.org/2000/svg" width="128" height="128" viewBox="0 0 128 128"><g style="display:inline"><path d="M124.828 857.328h200L445 977l.005 296.24c0 17.728-14.449 32.088-32.177 32.088h-288c-17.728 0-32-14.272-32-32v-384c0-17.728 14.272-32 32-32" style="display:inline;fill:#f6f5f4;fill-opacity:1;stroke:none;stroke-width:.5;stroke-linejoin:round;stroke-miterlimit:4;stroke-dasharray:none;stroke-opacity:1" transform="matrix(.25 0 0 .25 -3.23 -206.332)"/><path d="M324.828 857.328v88c0 17.728 14.443 31.694 32.17 31.694L445 977Z" style="display:inline;vector-effect:none;fill:#deddda;fill-opacity:1;stroke:none;stroke-width:.5;stroke-linecap:butt;stroke-linejoin:round;stroke-miterlimit:4;stroke-dasharray:none;stroke-dashoffset:0;stroke-opacity:1" transform="matrix(.25 0 0 .25 -3.23 -206.332)"/></g><g style="display:inline"><path d="M-144 221a60 60 0 0 1-60 60 60 60 0 0 1-60-60 60 60 0 0 1 60-60 60 60 0 0 1 60 60" style="display:inline;opacity:1;fill:#62a0ea;fill-opacity:1;stroke:none;stroke-width:.0112982px;stroke-linecap:butt;stroke-linejoin:miter;stroke-miterlimit:4;stroke-dasharray:none;stroke-dashoffset:0;stroke-opacity:1;marker:none;marker-start:none;marker-mid:none;marker-end:none;paint-order:normal" transform="matrix(.5 0 0 .5 166 -36.58)"/><path d="M-144 219a60 60 0 0 1-60 60 60 60 0 0 1-60-60 60 60 0 0 1 60-60 60 60 0 0 1 60 60" style="display:inline;opacity:1;fill:#3584e4;fill-opacity:1;stroke:none;stroke-width:.0112982px;stroke-linecap:butt;stroke-linejoin:miter;stroke-miterlimit:4;stroke-dasharray:none;stroke-dashoffset:0;stroke-opacity:1;marker:none;marker-start:none;marker-mid:none;marker-end:none;paint-order:normal" transform="matrix(.5 0 0 .5 166 -36.58)"/><path d="M20.004 220a36 63 0 0 0 7.838 38.251 44 27 0 0 0-9.864 7.16A60 60 0 0 1-3.992 220z" style="display:inline;fill:#99c1f1;fill-opacity:1;stroke:none;stroke-width:.0112982px;stroke-linecap:butt;stroke-linejoin:miter;stroke-miterlimit:4;stroke-dasharray:none;stroke-dashoffset:0;stroke-opacity:1;marker:none;marker-start:none;marker-mid:none;marker-end:none;paint-order:normal" transform="matrix(.5 0 0 .5 36 -36.58)"/><path d="M56 220v59a60 60 0 0 1-13.377-1.512A36 63 0 0 1 20.003 220z" style="display:inline;fill:#62a0ea;fill-opacity:1;stroke:none;stroke-width:.00896766px;stroke-linecap:butt;stroke-linejoin:miter;stroke-miterlimit:4;stroke-dasharray:none;stroke-dashoffset:0;stroke-opacity:1;marker:none;marker-start:none;marker-mid:none;marker-end:none;paint-order:normal" transform="matrix(.5 0 0 .5 36 -36.58)"/><path d="M56 252v27a60 60 0 0 1-13.377-1.512 36 63 0 0 1-14.781-19.236A44 27 0 0 1 56 252" style="display:inline;fill:#3584e4;fill-opacity:1;stroke:none;stroke-width:.00649031px;stroke-linecap:butt;stroke-linejoin:miter;stroke-miterlimit:4;stroke-dasharray:none;stroke-dashoffset:0;stroke-opacity:1;marker:none;marker-start:none;marker-mid:none;marker-end:none;paint-order:normal" transform="matrix(.5 0 0 .5 36 -36.58)"/><path d="M27.842 258.251a36 63 0 0 0 14.78 19.236 60 60 0 0 1-24.644-12.076 44 27 0 0 1 9.864-7.16" style="display:inline;fill:#62a0ea;fill-opacity:1;stroke:none;stroke-width:.00649031px;stroke-linecap:butt;stroke-linejoin:miter;stroke-miterlimit:4;stroke-dasharray:none;stroke-dashoffset:0;stroke-opacity:1;marker:none;marker-start:none;marker-mid:none;marker-end:none;paint-order:normal" transform="matrix(.5 0 0 .5 36 -36.58)"/><path d="M91.508 220a36 63 0 0 1-7.838 38.253 44 27 0 0 1 9.863 7.16 60 60 0 0 0 21.971-45.412z" style="display:inline;fill:#1c71d8;fill-opacity:1;stroke:none;stroke-width:.0112982px;stroke-linecap:butt;stroke-linejoin:miter;stroke-miterlimit:4;stroke-dasharray:none;stroke-dashoffset:0;stroke-opacity:1;marker:none;marker-start:none;marker-mid:none;marker-end:none;paint-order:normal" transform="matrix(.5 0 0 .5 36.244 -36.581)"/><path d="M55.512 220v59a60 60 0 0 0 13.377-1.51A36 63 0 0 0 91.508 220z" style="display:inline;fill:#3584e4;fill-opacity:1;stroke:none;stroke-width:.00896766px;stroke-linecap:butt;stroke-linejoin:miter;stroke-miterlimit:4;stroke-dasharray:none;stroke-dashoffset:0;stroke-opacity:1;marker:none;marker-start:none;marker-mid:none;marker-end:none;paint-order:normal" transform="matrix(.5 0 0 .5 36.244 -36.581)"/><path d="M55.512 252v27a60 60 0 0 0 13.377-1.51 36 63 0 0 0 14.781-19.237A44 27 0 0 0 55.512 252" style="display:inline;fill:#1c71d8;fill-opacity:1;stroke:none;stroke-width:.00649031px;stroke-linecap:butt;stroke-linejoin:miter;stroke-miterlimit:4;stroke-dasharray:none;stroke-dashoffset:0;stroke-opacity:1;marker:none;marker-start:none;marker-mid:none;marker-end:none;paint-order:normal" transform="matrix(.5 0 0 .5 36.244 -36.581)"/><path d="M83.67 258.252a36 63 0 0 1-14.781 19.236 60 60 0 0 0 24.644-12.076 44 27 0 0 0-9.863-7.16" style="display:inline;fill:#1a5fb4;fill-opacity:1;stroke:none;stroke-width:.00649031px;stroke-linecap:butt;stroke-linejoin:miter;stroke-miterlimit:4;stroke-dasharray:none;stroke-dashoffset:0;stroke-opacity:1;marker:none;marker-start:none;marker-mid:none;marker-end:none;paint-order:normal" transform="matrix(.5 0 0 .5 36.244 -36.581)"/><path d="M64 3A60 60 0 0 0 4 63a60 60 0 0 0 .008 1H64Z" style="opacity:1;fill:#b3d3f9;fill-opacity:1;stroke:none;stroke-width:2;stroke-linecap:round;stroke-linejoin:round;stroke-opacity:0" transform="matrix(.5 0 0 .5 32 41.42)"/><path d="M50.627 4.51a60 60 0 0 0-24.65 12.076 44 27 0 0 0 9.865 7.162A36 63 0 0 1 50.627 4.51" style="opacity:1;fill:#d7e8fc;fill-opacity:1;stroke:none;stroke-width:2;stroke-linecap:round;stroke-linejoin:round;stroke-opacity:0" transform="matrix(.5 0 0 .5 32 41.42)"/><path d="M64 3a60 60 0 0 0-13.373 1.51A36 63 0 0 0 28 63a36 63 0 0 0 .004 1H64Z" style="opacity:1;fill:#99c1f1;fill-opacity:1;stroke:none;stroke-width:3.50449;stroke-linecap:round;stroke-linejoin:round;stroke-opacity:0" transform="matrix(.5 0 0 .5 32 41.42)"/><path d="M64 3a60 60 0 0 0-13.373 1.51 36 63 0 0 0-14.783 19.238A44 27 0 0 0 64 30Z" style="opacity:1;fill:#b3d3f9;fill-opacity:1;stroke:none;stroke-width:3.50449;stroke-linecap:round;stroke-linejoin:round;stroke-opacity:0" transform="matrix(.5 0 0 .5 32 41.42)"/><path d="M-4 159a60 60 0 0 1 60 60 60 60 0 0 1-.008 1H-4z" style="fill:#3584e4;fill-opacity:1;stroke:none;stroke-width:2;stroke-linecap:round;stroke-linejoin:round;stroke-opacity:0" transform="matrix(.5 0 0 .5 66 -36.58)"/><path d="M9.373 160.51a60 60 0 0 1 24.65 12.076 44 27 0 0 1-9.865 7.162A36 63 0 0 0 9.373 160.51" style="fill:#62a0ea;fill-opacity:1;stroke:none;stroke-width:2;stroke-linecap:round;stroke-linejoin:round;stroke-opacity:0" transform="matrix(.5 0 0 .5 66 -36.58)"/><path d="M-4 159a60 60 0 0 1 13.373 1.51A36 63 0 0 1 32 219a36 63 0 0 1-.004 1H-4z" style="fill:#62a0ea;fill-opacity:1;stroke:none;stroke-width:3.50449;stroke-linecap:round;stroke-linejoin:round;stroke-opacity:0" transform="matrix(.5 0 0 .5 66 -36.58)"/><path d="M-4 159a60 60 0 0 1 13.373 1.51 36 63 0 0 1 14.783 19.238A44 27 0 0 1-4 186Z" style="fill:#99c1f1;fill-opacity:1;stroke:none;stroke-width:3.50449;stroke-linecap:round;stroke-linejoin:round;stroke-opacity:0" transform="matrix(.5 0 0 .5 66 -36.58)"/></g></svg>
